public/icons/logo.svg

<svg width="295" height="76" viewBox="0 0 295 76" fill="none" xmlns="http://www.w3.org/2000/svg">
<path d="M236.253 57.1657V22.4499H248.521V26.5955C249.308 25.4721 250.252 24.5283 251.353 23.7643C252.476 23.0004 253.678 22.4274 254.959 22.0454C256.24 21.6409 257.521 21.4387 258.801 21.4387C261.228 21.4387 263.363 22.0005 265.205 23.124C267.07 24.225 268.329 25.7417 268.98 27.6741C270.216 25.5844 271.98 24.0227 274.272 22.9891C276.564 21.9555 279.035 21.4387 281.687 21.4387C285.102 21.4387 287.776 22.0791 289.709 23.3599C291.641 24.6407 293 26.3147 293.787 28.3819C294.596 30.4266 295 32.6062 295 34.9206V57.1657H282.732V38.4259C282.732 36.6283 282.26 35.1902 281.316 34.1117C280.395 33.0331 279.058 32.4939 277.305 32.4939C276.204 32.4939 275.227 32.7298 274.373 33.2017C273.542 33.6511 272.89 34.2465 272.418 34.988C271.969 35.7295 271.744 36.5609 271.744 37.4822V57.1657H259.475V38.4259C259.475 36.6283 259.004 35.1902 258.06 34.1117C257.139 33.0331 255.802 32.4939 254.049 32.4939C252.948 32.4939 251.982 32.7298 251.15 33.2017C250.319 33.6511 249.667 34.2465 249.196 34.988C248.746 35.7295 248.521 36.5609 248.521 37.4822V57.1657H236.253Z" fill="#00316A"/>
<path d="M222.645 56.1637C219.136 57.7838 215.745 58.5078 212.473 58.3357C209.192 58.1432 206.242 57.1416 203.624 55.331C201.017 53.4905 198.941 50.8975 197.396 47.5518C196.266 45.1038 195.663 42.6722 195.587 40.257C195.502 37.8213 195.896 35.5112 196.768 33.3265C197.631 31.1214 198.924 29.1258 200.649 27.3396C202.393 25.5439 204.531 24.0621 207.06 22.8941C209.896 21.5848 212.636 20.9261 215.28 20.9178C217.936 20.8797 220.392 21.4286 222.649 22.5645C224.896 23.68 226.836 25.3086 228.469 27.4506C230.122 29.5831 231.323 32.1841 232.072 35.2537L208.877 45.9634C209.418 46.9756 210.194 47.7186 211.205 48.1923C212.236 48.6567 213.427 48.8496 214.776 48.7709C216.116 48.6718 217.531 48.2785 219.02 47.5909C220.918 46.7149 222.589 45.671 224.034 44.4592C225.47 43.227 226.752 41.7438 227.882 40.0095L234.682 45.8912C234.062 47.0683 233.103 48.3153 231.805 49.6322C230.519 50.9192 229.068 52.1459 227.453 53.3122C225.839 54.4785 224.236 55.429 222.645 56.1637ZM206.189 38.2944L218.154 32.77C217.512 31.433 216.482 30.5967 215.065 30.261C213.668 29.916 212.113 30.1391 210.4 30.9303C208.666 31.7309 207.406 32.8077 206.62 34.1606C205.854 35.5041 205.711 36.882 206.189 38.2944Z" fill="#00316A"/>
<path d="M180.029 57.1657V8.63086H192.298V57.1657H180.029Z" fill="#00316A"/>
<path d="M152.253 58.1769C149.017 58.1769 146.119 57.4241 143.557 55.9187C140.995 54.4132 138.973 52.2898 137.49 49.5485C136.007 46.7847 135.266 43.5378 135.266 39.8078C135.266 36.9991 135.693 34.4712 136.546 32.2242C137.4 29.9548 138.591 28.0224 140.119 26.427C141.647 24.8092 143.445 23.5734 145.512 22.7195C147.602 21.8656 149.849 21.4387 152.253 21.4387C155.399 21.4387 158.106 22.1353 160.376 23.5284C162.645 24.8991 164.229 26.7528 165.128 29.0897L163.443 31.7187V22.4499H173.891V57.1657H163.443V47.8969L165.128 50.5259C164.229 52.8628 162.645 54.7278 160.376 56.1209C158.106 57.4915 155.399 58.1769 152.253 58.1769ZM154.444 47.6947C155.814 47.6947 157.05 47.3801 158.151 46.751C159.252 46.0993 160.117 45.1893 160.746 44.0209C161.398 42.83 161.724 41.4256 161.724 39.8078C161.724 38.19 161.398 36.7968 160.746 35.6284C160.117 34.4375 159.252 33.5275 158.151 32.8983C157.05 32.2467 155.814 31.9209 154.444 31.9209C153.095 31.9209 151.871 32.2467 150.77 32.8983C149.669 33.5275 148.792 34.4375 148.141 35.6284C147.489 36.7968 147.163 38.19 147.163 39.8078C147.163 41.4256 147.489 42.83 148.141 44.0209C148.792 45.1893 149.669 46.0993 150.77 46.751C151.871 47.3801 153.095 47.6947 154.444 47.6947Z" fill="#00316A"/>
<path d="M95.6963 57.1659V8.6311H107.965V30.4381L105.37 27.3709C106.853 25.5958 108.616 24.169 110.661 23.0904C112.706 21.9894 114.975 21.4389 117.47 21.4389C120.773 21.4389 123.503 22.0905 125.66 23.3938C127.839 24.6746 129.468 26.3823 130.547 28.5169C131.648 30.6291 132.199 32.921 132.199 35.3927V57.1659H119.93V38.8305C119.93 36.9655 119.402 35.4488 118.346 34.2804C117.29 33.112 115.818 32.5165 113.931 32.494C112.627 32.494 111.526 32.7524 110.627 33.2693C109.751 33.7861 109.088 34.5388 108.639 35.5275C108.19 36.5161 107.965 37.6733 107.965 38.9991V57.1659H95.6963Z" fill="#00316A"/>
<path d="M76.0298 58.1096C72.7043 58.1096 69.6821 57.7164 66.9633 56.9299C64.2444 56.121 61.8738 54.9863 59.8516 53.5257L63.5254 45.2007C65.5027 46.3916 67.5812 47.3353 69.7608 48.0319C71.9628 48.7284 74.0188 49.0767 75.9287 49.0767C77.5241 49.0767 78.7374 48.8857 79.5688 48.5037C80.4002 48.0993 80.8159 47.5151 80.8159 46.7511C80.8159 46.077 80.4339 45.5939 79.6699 45.3018C78.906 45.0097 77.3668 44.6614 75.0524 44.257C70.2663 43.5155 66.761 42.2122 64.5365 40.3472C62.312 38.4822 61.1998 35.9094 61.1998 32.6288C61.1998 30.3144 61.8401 28.2921 63.1209 26.562C64.4242 24.8318 66.1993 23.4948 68.4463 22.5511C70.7157 21.5849 73.3222 21.1018 76.2658 21.1018C79.1419 21.1018 81.872 21.4838 84.456 22.2478C87.04 23.0117 89.2421 24.0454 91.0621 25.3486L87.5231 33.6737C86.5569 32.9771 85.4559 32.3704 84.2201 31.8536C83.0067 31.3143 81.7372 30.8986 80.4114 30.6065C79.1082 30.292 77.8611 30.1347 76.6702 30.1347C75.2771 30.1347 74.1536 30.3257 73.2997 30.7077C72.4684 31.0672 72.0527 31.584 72.0527 32.2581C72.0527 32.9322 72.401 33.4265 73.0975 33.7411C73.8166 34.0557 75.3333 34.4601 77.6477 34.9544C82.7258 35.9656 86.321 37.325 88.4332 39.0327C90.5453 40.7404 91.6014 43.1447 91.6014 46.2455C91.6014 48.6273 90.9386 50.717 89.6128 52.5146C88.3096 54.2897 86.4895 55.6716 84.1527 56.6603C81.8158 57.6265 79.1082 58.1096 76.0298 58.1096Z" fill="#00316A"/>
<path d="M43.8702 17.0481C44.8564 18.2837 49.6144 13.0144 50.4791 11.8499C51.3437 10.6855 51.4637 9.04068 50.3202 7.29004C49.1766 5.5394 45.3659 8.1385 45.3659 8.1385C45.3659 8.1385 49.2109 3.07302 45.5793 1.78058C41.9477 0.488136 28.6475 12.1312 28.6475 12.1312C28.6475 12.1312 42.884 15.811 43.8702 17.0465V17.0481Z" fill="#00316A"/>
<path d="M54.3958 29.8287C55.1842 33.7724 55.1327 36.7175 54.226 40.2899C51.5775 50.7179 59.5433 56.8025 47.6826 63.8319C39.3756 68.7552 28.2253 57.0584 23.9643 54.4562C18.5863 51.1713 14.4359 45.4265 13.0181 38.3402C10.4787 25.6401 17.6827 13.4394 29.1087 11.0899C40.5347 8.73886 51.8564 17.1287 54.3958 29.8287Z" fill="#0083D7"/>
<path d="M21.2598 30.5415C23.6604 30.5415 25.6065 28.5679 25.6065 26.1333C25.6065 23.6987 23.6604 21.7251 21.2598 21.7251C18.8592 21.7251 16.9131 23.6987 16.9131 26.1333C16.9131 28.5679 18.8592 30.5415 21.2598 30.5415Z" fill="white"/>
<path d="M19.7314 28.4526C20.9945 28.4526 22.0185 27.4142 22.0185 26.1332C22.0185 24.8522 20.9945 23.8137 19.7314 23.8137C18.4683 23.8137 17.4443 24.8522 17.4443 26.1332C17.4443 27.4142 18.4683 28.4526 19.7314 28.4526Z" fill="black" stroke="white" stroke-miterlimit="10"/>
<path d="M34.2998 30.5415C36.7004 30.5415 38.6465 28.5679 38.6465 26.1333C38.6465 23.6987 36.7004 21.7251 34.2998 21.7251C31.8992 21.7251 29.9531 23.6987 29.9531 26.1333C29.9531 28.5679 31.8992 30.5415 34.2998 30.5415Z" fill="white"/>
<path d="M32.9277 28.4526C34.1908 28.4526 35.2148 27.4142 35.2148 26.1332C35.2148 24.8522 34.1908 23.8137 32.9277 23.8137C31.6646 23.8137 30.6406 24.8522 30.6406 26.1332C30.6406 27.4142 31.6646 28.4526 32.9277 28.4526Z" fill="black" stroke="white" stroke-miterlimit="10"/>
<path d="M22.7087 39.7749L27.1847 40.2631C28.1927 40.3737 28.9685 39.3799 28.632 38.4098L27.3467 34.7015C27.0102 33.7314 25.7919 33.4486 25.0736 34.1738L21.883 37.3938C21.0604 38.2233 21.5542 39.6485 22.7071 39.7749H22.7087Z" fill="#00316A"/>
</svg>

<svg xmlns="http://www.w3.org/2000/svg" id="Layer_1" viewBox="0 0 295 76"><defs><style>.st0{fill:#fff}.st2{fill:#00316a}.st3{stroke:#fff;stroke-miterlimit:10}</style></defs><path d="M236.25 57.17V22.45h12.27v4.15c.79-1.12 1.73-2.07 2.83-2.83 1.12-.76 2.32-1.34 3.61-1.72 1.28-.4 2.56-.61 3.84-.61 2.43 0 4.56.56 6.4 1.69 1.87 1.1 3.12 2.62 3.78 4.55 1.24-2.09 3-3.65 5.29-4.69s4.76-1.55 7.42-1.55c3.41 0 6.09.64 8.02 1.92s3.29 2.95 4.08 5.02c.81 2.04 1.21 4.22 1.21 6.54v22.25h-12.27V38.43c0-1.8-.47-3.24-1.42-4.31-.92-1.08-2.26-1.62-4.01-1.62-1.1 0-2.08.24-2.93.71-.83.45-1.48 1.04-1.95 1.79-.45.74-.67 1.57-.67 2.49v19.68h-12.27V38.43c0-1.8-.47-3.24-1.42-4.31-.92-1.08-2.26-1.62-4.01-1.62-1.1 0-2.07.24-2.9.71-.83.45-1.48 1.04-1.95 1.79-.45.74-.68 1.57-.68 2.49v19.68zM222.65 56.16c-3.51 1.62-6.9 2.34-10.17 2.17q-4.92-.285-8.85-3c-2.61-1.84-4.68-4.43-6.23-7.78-1.13-2.45-1.73-4.88-1.81-7.29-.09-2.44.31-4.75 1.18-6.93.86-2.21 2.16-4.2 3.88-5.99 1.74-1.8 3.88-3.28 6.41-4.45q4.26-1.965 8.22-1.98c2.66-.04 5.11.51 7.37 1.65 2.25 1.12 4.19 2.74 5.82 4.89q2.475 3.195 3.6 7.8l-23.2 10.71c.54 1.01 1.32 1.76 2.33 2.23 1.03.46 2.22.66 3.57.58 1.34-.1 2.76-.49 4.24-1.18 1.9-.88 3.57-1.92 5.01-3.13 1.44-1.23 2.72-2.72 3.85-4.45l6.8 5.88c-.62 1.18-1.58 2.42-2.88 3.74-1.29 1.29-2.74 2.51-4.35 3.68s-3.22 2.12-4.81 2.85Zm-16.46-17.87 11.97-5.52c-.64-1.34-1.67-2.17-3.09-2.51-1.4-.34-2.95-.12-4.67.67-1.73.8-2.99 1.88-3.78 3.23-.77 1.34-.91 2.72-.43 4.13M180.03 57.17V8.63h12.27v48.53h-12.27ZM152.25 58.18c-3.24 0-6.13-.75-8.7-2.26-2.56-1.51-4.58-3.63-6.07-6.37-1.48-2.76-2.22-6.01-2.22-9.74 0-2.81.43-5.34 1.28-7.58.85-2.27 2.04-4.2 3.57-5.8 1.53-1.62 3.33-2.85 5.39-3.71 2.09-.85 4.34-1.28 6.74-1.28 3.15 0 5.85.7 8.12 2.09 2.27 1.37 3.85 3.22 4.75 5.56l-1.69 2.63v-9.27h10.45v34.72h-10.45V47.9l1.69 2.63c-.9 2.34-2.48 4.2-4.75 5.59-2.27 1.37-4.98 2.06-8.12 2.06Zm2.19-10.49c1.37 0 2.61-.31 3.71-.94 1.1-.65 1.97-1.56 2.6-2.73.65-1.19.98-2.6.98-4.21s-.33-3.01-.98-4.18c-.63-1.19-1.49-2.1-2.6-2.73-1.1-.65-2.34-.98-3.71-.98s-2.57.33-3.67.98c-1.1.63-1.98 1.54-2.63 2.73-.65 1.17-.98 2.56-.98 4.18s.33 3.02.98 4.21c.65 1.17 1.53 2.08 2.63 2.73 1.1.63 2.32.94 3.67.94M95.7 57.17V8.63h12.27v21.81l-2.59-3.07c1.48-1.78 3.25-3.2 5.29-4.28q3.06-1.65 6.81-1.65 4.95 0 8.19 1.95c2.18 1.28 3.81 2.99 4.89 5.12 1.1 2.11 1.65 4.4 1.65 6.88v21.77h-12.27V38.82c0-1.87-.53-3.38-1.58-4.55s-2.53-1.76-4.42-1.79q-1.95 0-3.3.78c-.88.52-1.54 1.27-1.99 2.26s-.67 2.15-.67 3.47v18.17H95.71ZM76.03 58.11c-3.33 0-6.35-.39-9.07-1.18-2.72-.81-5.09-1.94-7.11-3.4l3.67-8.33c1.98 1.19 4.06 2.13 6.24 2.83 2.2.7 4.26 1.04 6.17 1.04 1.6 0 2.81-.19 3.64-.57.83-.4 1.25-.99 1.25-1.75 0-.67-.38-1.16-1.15-1.45-.76-.29-2.3-.64-4.62-1.04-4.79-.74-8.29-2.04-10.52-3.91-2.22-1.86-3.34-4.44-3.34-7.72 0-2.31.64-4.34 1.92-6.07 1.3-1.73 3.08-3.07 5.33-4.01 2.27-.97 4.88-1.45 7.82-1.45s5.61.38 8.19 1.15c2.58.76 4.79 1.8 6.61 3.1l-3.54 8.33c-.97-.7-2.07-1.3-3.3-1.82a20.2 20.2 0 0 0-3.81-1.25c-1.3-.31-2.55-.47-3.74-.47-1.39 0-2.52.19-3.37.57-.83.36-1.25.88-1.25 1.55s.35 1.17 1.04 1.48c.72.31 2.24.72 4.55 1.21 5.08 1.01 8.67 2.37 10.79 4.08 2.11 1.71 3.17 4.11 3.17 7.21 0 2.38-.66 4.47-1.99 6.27-1.3 1.78-3.12 3.16-5.46 4.15-2.34.97-5.04 1.45-8.12 1.45M43.87 17.05c.99 1.24 5.74-4.03 6.61-5.2.86-1.16.98-2.81-.16-4.56s-4.95.85-4.95.85 3.85-5.07.21-6.36C41.95.49 28.65 12.13 28.65 12.13s14.24 3.68 15.22 4.92" class="st2"/><path d="M54.4 29.83c.79 3.94.74 6.89-.17 10.46-2.65 10.43 5.32 16.51-6.54 23.54-8.31 4.92-19.46-6.77-23.72-9.38-5.38-3.28-9.53-9.03-10.95-16.12-2.54-12.7 4.66-24.9 16.09-27.25s22.75 6.04 25.29 18.74Z" style="fill:#0083d7"/><g class="eyes"><path d="M21.26 30.54c2.4 0 4.35-1.97 4.35-4.41s-1.95-4.41-4.35-4.41-4.35 1.97-4.35 4.41 1.95 4.41 4.35 4.41" class="st0"/><path d="M19.73 28.45c1.26 0 2.29-1.04 2.29-2.32s-1.02-2.32-2.29-2.32-2.29 1.04-2.29 2.32 1.02 2.32 2.29 2.32Z" class="st3"/><path d="M34.3 30.54c2.4 0 4.35-1.97 4.35-4.41s-1.95-4.41-4.35-4.41-4.35 1.97-4.35 4.41 1.95 4.41 4.35 4.41" class="st0"/><path d="M32.93 28.45c1.26 0 2.29-1.04 2.29-2.32s-1.02-2.32-2.29-2.32-2.29 1.04-2.29 2.32 1.02 2.32 2.29 2.32Z" class="st3"/></g><path d="m22.71 39.77 4.48.49c1.01.11 1.78-.88 1.45-1.85l-1.29-3.71a1.37 1.37 0 0 0-2.27-.53l-3.19 3.22c-.82.83-.33 2.25.82 2.38" class="st2"/></svg>
